X: 1
T: Return from India
O: Kerr MM 1
N: This is the Kerr version; Jerry Holland has it with the parts interchanged.
S: from Laura Risk 2012
Z: Terry Traub
R: reel
M: 4/4
K: A
L: 1/8
e |:\
"A"dcBA cAce | "Bm"dcBA "E7"GBEe |\
"A"dcBA cAeA | "Bm"fA"E"gA [1 "A"afec :|[2 "A"aAA :|
e |\
"A"agae agae | "Bm"dcBA "E7"GBBe |\
"A"agae agae | "D"fe"E7"fg "A"aAA ||
e |\
"A"aA"E"gA "D"fA"A"eA | "Bm"dcBA "E7"GBed |\
"A"cABc "D"defg | "E7"agfg "A"aA A |]
%%center Book48/Return_from_India_JK_MM-A-16-3.abc

%%sep 1 1 500
%%sep 1 1 500

